X: 42467
T: Wet The Tea
R: jig
M: 6/8
K: Eminor
|:~g3 fed|BAF GEE|FDD FGA|BAB GEE|
g2e fed|BAF GEE|FDD FGA|1 GED E3:|2 GED E2B||
|:~e3 geB|~e3 gab|afd dAF|DFA d2B|
cBc d^cd|ede g2e|dBA GFD|1 EFD E2B:|2 EFD E3||

